X: 2203
T: LADY MADELINA SINCLAIR'S BIRTHDAY
Q: "Reel."
R: Reel.
%R: reel
B: James Kerr "Merry Melodies" v.2 p.23 #203
Z: 2016 John Chambers <jc:trillian.mit.edu>
M: C
L: 1/8
K: Bb
ud |\
B2(FB) DBFB | B2 (d/c/B) Accd |\
B2(FB) DBFB | (A/B/c) (ce) dBB ::\
d |\
B/B/B (dB) fBdB |
B/B/B (dB) Accd |\
[1 B/B/B (dB) fBdB | (A/B/c) (ce) dBB :|\
[2 Bdce dfeg | ffga bBB |]
